packages/icons/src/phone.svg

<svg width="24" height="24" viewBox="0 0 24 24" fill="none" xmlns="http://www.w3.org/2000/svg">
<path fill-rule="evenodd" clip-rule="evenodd" d="M7 2C5.89543 2 5 2.89543 5 4V20C5 21.1046 5.89543 22 7 22H17C18.1046 22 19 21.1046 19 20V4C19 2.89543 18.1046 2 17 2H7ZM7 4H17V20H7V4Z" fill="black"/>
<path d="M11 16H13V18H11V16Z" fill="black"/>
</svg>

<svg xmlns="http://www.w3.org/2000/svg" width="24" height="24" fill="none" viewBox="0 0 24 24">
  <path fill="#000" fill-rule="evenodd" d="M7 2a2 2 0 0 0-2 2v16a2 2 0 0 0 2 2h10a2 2 0 0 0 2-2V4a2 2 0 0 0-2-2H7Zm0 2h10v16H7V4Z" clip-rule="evenodd"/>
  <path fill="#000" d="M11 16h2v2h-2v-2Z"/>
</svg>
